X: 305573
M: 2/4
L: 1/16
K: Bb
fbfd Bdfb | fdcA Fedc | BABc dBed | cBcd c2de |\
fbfd gecA | gecA Fedc | Bbag fedc | B2[b2B2]B2 :|
|: z2 |\
bagf edcB | AbFg fedc | Bdfb fdcA | B2B2B2 :|


